client/src/data-layers/filters/close.svg

<svg viewBox="0 0 20 20" 
  xmlns="http://www.w3.org/2000/svg" fill="currentColor">
  <path d="M1.37436 3.30719L16.8326 19.4528c.7113.7429 1.881.7265 2.61-.0349.73-.7624.7447-1.983.0335-2.7259L4.0178.546386c-.71128-.741832-1.88101-.72642-2.60999.034934-.729973.76238-.744729 1.98301-.03345 2.72587z"/>
  <path d="M3.16697 19.4528L18.6262 3.30821c.7113-.74286.6955-1.96452-.0334-2.725876-.73-.762382-1.8987-.777793-2.61-.034933L.523533 16.692c-.711279.7429-.695538 1.9645.033448 2.7259.729969.7624 1.898709.7778 2.609989.0349z"/>
</svg>

<svg width="20" height="20" viewBox="0 0 20 20" fill="none" xmlns="http://www.w3.org/2000/svg">
<g clip-path="url(#clip0)">
<path d="M1.37436 3.30719L16.8326 19.4528C17.5439 20.1957 18.7136 20.1793 19.4426 19.4179C20.1726 18.6555 20.1873 17.4349 19.4761 16.692L4.0178 0.546386C3.30652 -0.195446 2.13679 -0.180034 1.40781 0.58132C0.677837 1.3437 0.663081 2.56433 1.37436 3.30719V3.30719Z" fill="black"/>
<path d="M3.16697 19.4528L18.6262 3.30821C19.3375 2.56535 19.3217 1.34369 18.5928 0.582334C17.8628 -0.180048 16.6941 -0.195459 15.9828 0.547401L0.523533 16.692C-0.187746 17.4349 -0.172005 18.6565 0.556981 19.4179C1.28695 20.1803 2.45569 20.1957 3.16697 19.4528Z" fill="black"/>
</g>
<defs>
<clipPath id="clip0">
<rect width="20" height="20" fill="white"/>
</clipPath>
</defs>
</svg>
